dist/icons/svgs/chevron-circle-right-solid.svg

<svg xmlns="http://www.w3.org/2000/svg" width="24" height="24" fill="currentcolor" class="icon-chevron-circle-right-solid" viewBox="0 0 24 24">
  <path d="M2 12C2 8.44531 3.875 5.16406 7 3.36719C10.0859 1.57031 13.875 1.57031 17 3.36719C20.0859 5.16406 22 8.44531 22 12C22 15.5938 20.0859 18.875 17 20.6719C13.875 22.4688 10.0859 22.4688 7 20.6719C3.875 18.875 2 15.5938 2 12ZM11.4141 16.7266L15.4766 12.6641C15.8281 12.3125 15.8281 11.7266 15.4766 11.3359L11.4141 7.3125C11.0234 6.92188 10.4375 6.92188 10.0859 7.3125C9.69531 7.66406 9.69531 8.25 10.0859 8.64062L13.4844 12.0391L10.0859 15.4375C9.69531 15.7891 9.69531 16.375 10.0859 16.7266C10.4375 17.1172 11.0234 17.1172 11.4141 16.7266Z"/>
</svg>

<svg xmlns="http://www.w3.org/2000/svg" width="24" height="24" fill="currentColor" class="icon-chevron-circle-right-solid" viewBox="0 0 24 24">
  <path d="M2 12a9.93 9.93 0 0 1 5-8.633c3.086-1.797 6.875-1.797 10 0 3.086 1.797 5 5.078 5 8.633 0 3.594-1.914 6.875-5 8.672-3.125 1.797-6.914 1.797-10 0C3.875 18.875 2 15.594 2 12m9.414 4.727 4.063-4.063c.351-.351.351-.937 0-1.328l-4.063-4.024c-.39-.39-.976-.39-1.328 0-.39.352-.39.938 0 1.329l3.398 3.398-3.398 3.399a.856.856 0 0 0 0 1.289c.351.39.937.39 1.328 0"/>
</svg>
